!!!OTL-incipit: EI SO SAGT MIRS FREI, WAS DOCH SCHOENER SEI
!!!ARE: Europa, Mitteleuropa, Deutschland
!!!SCT: Z0184
!!!YEM: Copyright 1995, estate of Helmut Schaffrath.
**kern	**text
*ICvox	*
*M3/8	*
*k[]	*
*C:	*
=1	=1
!LO:TX:a:t=Jägerlied. Deutſch.	!
{4cc	Ei
8g	ſo
=2	=2
4cc	ſagt
8g	mir's
=3	=3
4.cc}	frei,
=4	=4
{4dd	was
8g	doch
=5	=5
4dd	ſchö-
8g	-ner
=6	=6
4.dd}	ſey,
=7	=7
{4ee	was
8cc	noch
=8	=8
4gg	ed-
8ee	-ler
=9	=9
4.dd}	ſey,
=10	=10
{8.ee	als
16cc	die
16ee	ſchöne
16cc	.
=11	=11
4gg	Jä-
8ee	-ge-
=12	=12
4.dd}	-rei!
=13	=13
{4g	wo
8g	Di-
=14	=14
4gg	-a-
8g	-na
=15	=15
4.g}	raſ't,
=16	=16
{4g	und
8g	das
=17	=17
4gg	Waldhorn
8g	.
=18	=18
4.g}	blaſ't,
=19	=19
{8.cc	in
16g	dem
16ee	ſchönen
16cc	.
=20	=20
4gg	grü-
8ee	-nen
=21	=21
4ff	Wald-
8dd	-pal-
=22	=22
4.cc}	-laſt.
==	==
!!!AGN: Soldaten -, Jaeger - Lied
!!!ONB: ESAC (Essen Associative Code) Database: ZUCCAL
!!!AMT: simple triple
!!!AIN: vox
!!!EED: Helmut Schaffrath
!!!EEV: 1.0
!!!GTL: III. Soldaten-, Jaeger-, Schiffer-, Fuhrmanns- und Handwerks-Lieder.
!!!URL-scan: https://www.digitale-sammlungen.de/de/view/bsb11160571?page=343
!!!ENC: Anna Maria Matuszewska
!!!EEV: 2025/01/28
*-	*-
